docs/content/guide/markdown-features/diagrams/markdown-pipeline-overview-light.svg

<svg xmlns="http://www.w3.org/2000/svg" width="710pt" height="223pt" viewBox="0 0 710 223"><g id="graph0" class="graph" transform="translate(7.2 215.44)"><title>MarkdownPipelineOverview</title><g id="node1" class="node"><title>source</title><path fill="#dae8fc" stroke="#6c8ebf" d="M77.76-203.2H12c-6 0-12 6-12 12v12c0 6 6 12 12 12h65.76c6 0 12-6 12-12v-12c0-6-6-12-12-12"/><text xml:space="preserve" x="44.88" y="-182.2" fill="#333" font-family="Times,serif" font-size="10" text-anchor="middle">Markdown source</text></g><g id="node2" class="node"><title>remark</title><path fill="#dae8fc" stroke="#6c8ebf" d="M221.82-208.24H119.94c-6 0-12 6-12 12v22.08c0 6 6 12 12 12h101.88c6 0 12-6 12-12v-22.08c0-6-6-12-12-12"/><text xml:space="preserve" x="170.88" y="-194.2" fill="#333" font-family="Times,serif" font-size="10" text-anchor="middle">Built-in remark</text><text xml:space="preserve" x="170.88" y="-182.2" fill="#333" font-family="Times,serif" font-size="10" text-anchor="middle">GFM, frontmatter, alerts,</text><text xml:space="preserve" x="170.88" y="-170.2" fill="#333" font-family="Times,serif" font-size="10" text-anchor="middle">smartypants, optional math</text></g><g id="edge1" class="edge"><title>source-&gt;remark</title><path fill="none" stroke="#aaa" d="M90.16-185.2h5.96"/><path fill="#aaa" stroke="#aaa" d="m95.99-188.7 10 3.5-10 3.5z"/></g><g id="node3" class="node"><title>userRemark</title><path fill="#dae8fc" stroke="#6c8ebf" d="M334-208.24h-70.24c-6 0-12 6-12 12v22.08c0 6 6 12 12 12H334c6 0 12-6 12-12v-22.08c0-6-6-12-12-12"/><text xml:space="preserve" x="298.88" y="-194.2" fill="#333" font-family="Times,serif" font-size="10" text-anchor="middle">Custom remark</text><text xml:space="preserve" x="298.88" y="-182.2" fill="#333" font-family="Times,serif" font-size="10" text-anchor="middle">plugins</text><text xml:space="preserve" x="298.88" y="-170.2" fill="#333" font-family="Times,serif" font-size="10" text-anchor="middle">(@pagesmith/core)</text></g><g id="edge2" class="edge"><title>remark-&gt;userRemark</title><path fill="none" stroke="#aaa" d="M233.88-185.2h6.02"/><path fill="#aaa" stroke="#aaa" d="m239.89-188.7 10 3.5-10 3.5z"/></g><g id="node4" class="node"><title>alias</title><path fill="#dae8fc" stroke="#6c8ebf" d="M325.64-122.12h-53.52c-6 0-12 6-12 12v12c0 6 6 12 12 12h53.52c6 0 12-6 12-12v-12c0-6-6-12-12-12"/><text xml:space="preserve" x="298.88" y="-107.12" fill="#333" font-family="Times,serif" font-size="10" text-anchor="middle">Language alias</text><text xml:space="preserve" x="298.88" y="-95.12" fill="#333" font-family="Times,serif" font-size="10" text-anchor="middle">transform</text></g><g id="edge3" class="edge"><title>userRemark-&gt;alias</title><path fill="none" stroke="#aaa" d="M298.88-161.75v27.78"/><path fill="#aaa" stroke="#aaa" d="m302.38-134.11-3.5 10-3.5-10z"/></g><g id="node5" class="node"><title>bridge</title><path fill="#dae8fc" stroke="#6c8ebf" d="M462.12-122.12h-94.48c-6 0-12 6-12 12v12c0 6 6 12 12 12h94.48c6 0 12-6 12-12v-12c0-6-6-12-12-12"/><text xml:space="preserve" x="414.88" y="-107.12" fill="#333" font-family="Times,serif" font-size="10" text-anchor="middle">remark-rehype</text><text xml:space="preserve" x="414.88" y="-95.12" fill="#333" font-family="Times,serif" font-size="10" text-anchor="middle">MD AST -&gt; HTML AST</text></g><g id="edge4" class="edge"><title>alias-&gt;bridge</title><path fill="none" stroke="#aaa" d="M337.85-104.12h6"/><path fill="#aaa" stroke="#aaa" d="m343.79-107.62 10 3.5-10 3.5z"/></g><g id="node6" class="node"><title>rehype</title><path fill="#dae8fc" stroke="#6c8ebf" d="M586.09-133.16h-82.42c-6 0-12 6-12 12v34.08c0 6 6 12 12 12h82.42c6 0 12-6 12-12v-34.08c0-6-6-12-12-12"/><text xml:space="preserve" x="544.88" y="-119.12" fill="#333" font-family="Times,serif" font-size="10" text-anchor="middle">Built-in rehype</text><text xml:space="preserve" x="544.88" y="-107.12" fill="#333" font-family="Times,serif" font-size="10" text-anchor="middle">MathJax, code, tables,</text><text xml:space="preserve" x="544.88" y="-95.12" fill="#333" font-family="Times,serif" font-size="10" text-anchor="middle">slug, autolinks, emoji,</text><text xml:space="preserve" x="544.88" y="-83.12" fill="#333" font-family="Times,serif" font-size="10" text-anchor="middle">images, headings</text></g><g id="edge5" class="edge"><title>bridge-&gt;rehype</title><path fill="none" stroke="#aaa" d="M474.55-104.12h5.5"/><path fill="#aaa" stroke="#aaa" d="m479.79-107.62 10 3.5-10 3.5z"/></g><g id="node7" class="node"><title>post</title><path fill="#dae8fc" stroke="#6c8ebf" d="M594.85-46.08h-99.93c-6 0-12 6-12 12V-12c0 6 6 12 12 12h99.93c6 0 12-6 12-12v-22.08c0-6-6-12-12-12"/><text xml:space="preserve" x="544.88" y="-32.04" fill="#333" font-family="Times,serif" font-size="10" text-anchor="middle">Post-processing</text><text xml:space="preserve" x="544.88" y="-20.04" fill="#333" font-family="Times,serif" font-size="10" text-anchor="middle">core: custom rehype</text><text xml:space="preserve" x="544.88" y="-8.04" fill="#333" font-family="Times,serif" font-size="10" text-anchor="middle">docs: link/asset transforms</text></g><g id="edge6" class="edge"><title>rehype-&gt;post</title><path fill="none" stroke="#aaa" d="M544.88-75.02v17.27"/><path fill="#aaa" stroke="#aaa" d="m548.38-57.85-3.5 10-3.5-10z"/></g><g id="node8" class="node"><title>output</title><path fill="#dae8fc" stroke="#6c8ebf" d="M683.32-41.04h-46.88c-6 0-12 6-12 12v12c0 6 6 12 12 12h46.88c6 0 12-6 12-12v-12c0-6-6-12-12-12"/><text xml:space="preserve" x="659.88" y="-20.04" fill="#333" font-family="Times,serif" font-size="10" text-anchor="middle">HTML string</text></g><g id="edge7" class="edge"><title>post-&gt;output</title><path fill="none" stroke="#aaa" d="M607.32-23.04h5.53"/><path fill="#aaa" stroke="#aaa" d="m612.64-26.54 10 3.5-10 3.5z"/></g></g></svg>

<?xml version="1.0" encoding="UTF-8" standalone="no"?>
<!DOCTYPE svg PUBLIC "-//W3C//DTD SVG 1.1//EN"
 "http://www.w3.org/Graphics/SVG/1.1/DTD/svg11.dtd">
<!-- Generated by graphviz version 14.1.5 (20260411.2331)
 -->
<!-- Title: MarkdownPipelineOverview Pages: 1 -->
<svg width="710pt" height="223pt"
 viewBox="0.00 0.00 710.00 223.00" xmlns="http://www.w3.org/2000/svg" xmlns:xlink="http://www.w3.org/1999/xlink">
<g id="graph0" class="graph" transform="scale(1 1) rotate(0) translate(7.2 215.44)">
<title>MarkdownPipelineOverview</title>
<!-- source -->
<g id="node1" class="node">
<title>source</title>
<path fill="#dae8fc" stroke="#6c8ebf" d="M77.76,-203.2C77.76,-203.2 12,-203.2 12,-203.2 6,-203.2 0,-197.2 0,-191.2 0,-191.2 0,-179.2 0,-179.2 0,-173.2 6,-167.2 12,-167.2 12,-167.2 77.76,-167.2 77.76,-167.2 83.76,-167.2 89.76,-173.2 89.76,-179.2 89.76,-179.2 89.76,-191.2 89.76,-191.2 89.76,-197.2 83.76,-203.2 77.76,-203.2"/>
<text xml:space="preserve" text-anchor="middle" x="44.88" y="-182.2" font-family="Times,serif" font-size="10.00" fill="#333333">Markdown source</text>
</g>
<!-- remark -->
<g id="node2" class="node">
<title>remark</title>
<path fill="#dae8fc" stroke="#6c8ebf" d="M221.82,-208.24C221.82,-208.24 119.94,-208.24 119.94,-208.24 113.94,-208.24 107.94,-202.24 107.94,-196.24 107.94,-196.24 107.94,-174.16 107.94,-174.16 107.94,-168.16 113.94,-162.16 119.94,-162.16 119.94,-162.16 221.82,-162.16 221.82,-162.16 227.82,-162.16 233.82,-168.16 233.82,-174.16 233.82,-174.16 233.82,-196.24 233.82,-196.24 233.82,-202.24 227.82,-208.24 221.82,-208.24"/>
<text xml:space="preserve" text-anchor="middle" x="170.88" y="-194.2" font-family="Times,serif" font-size="10.00" fill="#333333">Built&#45;in remark</text>
<text xml:space="preserve" text-anchor="middle" x="170.88" y="-182.2" font-family="Times,serif" font-size="10.00" fill="#333333">GFM, frontmatter, alerts,</text>
<text xml:space="preserve" text-anchor="middle" x="170.88" y="-170.2" font-family="Times,serif" font-size="10.00" fill="#333333">smartypants, optional math</text>
</g>
<!-- source&#45;&gt;remark -->
<g id="edge1" class="edge">
<title>source&#45;&gt;remark</title>
<path fill="none" stroke="#aaaaaa" d="M90.16,-185.2C92.15,-185.2 94.14,-185.2 96.12,-185.2"/>
<polygon fill="#aaaaaa" stroke="#aaaaaa" points="95.99,-188.7 105.99,-185.2 95.99,-181.7 95.99,-188.7"/>
</g>
<!-- userRemark -->
<g id="node3" class="node">
<title>userRemark</title>
<path fill="#dae8fc" stroke="#6c8ebf" d="M334,-208.24C334,-208.24 263.76,-208.24 263.76,-208.24 257.76,-208.24 251.76,-202.24 251.76,-196.24 251.76,-196.24 251.76,-174.16 251.76,-174.16 251.76,-168.16 257.76,-162.16 263.76,-162.16 263.76,-162.16 334,-162.16 334,-162.16 340,-162.16 346,-168.16 346,-174.16 346,-174.16 346,-196.24 346,-196.24 346,-202.24 340,-208.24 334,-208.24"/>
<text xml:space="preserve" text-anchor="middle" x="298.88" y="-194.2" font-family="Times,serif" font-size="10.00" fill="#333333">Custom remark</text>
<text xml:space="preserve" text-anchor="middle" x="298.88" y="-182.2" font-family="Times,serif" font-size="10.00" fill="#333333">plugins</text>
<text xml:space="preserve" text-anchor="middle" x="298.88" y="-170.2" font-family="Times,serif" font-size="10.00" fill="#333333">(@pagesmith/core)</text>
</g>
<!-- remark&#45;&gt;userRemark -->
<g id="edge2" class="edge">
<title>remark&#45;&gt;userRemark</title>
<path fill="none" stroke="#aaaaaa" d="M233.88,-185.2C235.89,-185.2 237.9,-185.2 239.9,-185.2"/>
<polygon fill="#aaaaaa" stroke="#aaaaaa" points="239.89,-188.7 249.89,-185.2 239.89,-181.7 239.89,-188.7"/>
</g>
<!-- alias -->
<g id="node4" class="node">
<title>alias</title>
<path fill="#dae8fc" stroke="#6c8ebf" d="M325.64,-122.12C325.64,-122.12 272.12,-122.12 272.12,-122.12 266.12,-122.12 260.12,-116.12 260.12,-110.12 260.12,-110.12 260.12,-98.12 260.12,-98.12 260.12,-92.12 266.12,-86.12 272.12,-86.12 272.12,-86.12 325.64,-86.12 325.64,-86.12 331.64,-86.12 337.64,-92.12 337.64,-98.12 337.64,-98.12 337.64,-110.12 337.64,-110.12 337.64,-116.12 331.64,-122.12 325.64,-122.12"/>
<text xml:space="preserve" text-anchor="middle" x="298.88" y="-107.12" font-family="Times,serif" font-size="10.00" fill="#333333">Language alias</text>
<text xml:space="preserve" text-anchor="middle" x="298.88" y="-95.12" font-family="Times,serif" font-size="10.00" fill="#333333">transform</text>
</g>
<!-- userRemark&#45;&gt;alias -->
<g id="edge3" class="edge">
<title>userRemark&#45;&gt;alias</title>
<path fill="none" stroke="#aaaaaa" d="M298.88,-161.75C298.88,-153.11 298.88,-143.13 298.88,-133.97"/>
<polygon fill="#aaaaaa" stroke="#aaaaaa" points="302.38,-134.11 298.88,-124.11 295.38,-134.11 302.38,-134.11"/>
</g>
<!-- bridge -->
<g id="node5" class="node">
<title>bridge</title>
<path fill="#dae8fc" stroke="#6c8ebf" d="M462.12,-122.12C462.12,-122.12 367.64,-122.12 367.64,-122.12 361.64,-122.12 355.64,-116.12 355.64,-110.12 355.64,-110.12 355.64,-98.12 355.64,-98.12 355.64,-92.12 361.64,-86.12 367.64,-86.12 367.64,-86.12 462.12,-86.12 462.12,-86.12 468.12,-86.12 474.12,-92.12 474.12,-98.12 474.12,-98.12 474.12,-110.12 474.12,-110.12 474.12,-116.12 468.12,-122.12 462.12,-122.12"/>
<text xml:space="preserve" text-anchor="middle" x="414.88" y="-107.12" font-family="Times,serif" font-size="10.00" fill="#333333">remark&#45;rehype</text>
<text xml:space="preserve" text-anchor="middle" x="414.88" y="-95.12" font-family="Times,serif" font-size="10.00" fill="#333333">MD AST &#45;&gt; HTML AST</text>
</g>
<!-- alias&#45;&gt;bridge -->
<g id="edge4" class="edge">
<title>alias&#45;&gt;bridge</title>
<path fill="none" stroke="#aaaaaa" d="M337.85,-104.12C339.85,-104.12 341.85,-104.12 343.85,-104.12"/>
<polygon fill="#aaaaaa" stroke="#aaaaaa" points="343.79,-107.62 353.79,-104.12 343.79,-100.62 343.79,-107.62"/>
</g>
<!-- rehype -->
<g id="node6" class="node">
<title>rehype</title>
<path fill="#dae8fc" stroke="#6c8ebf" d="M586.09,-133.16C586.09,-133.16 503.67,-133.16 503.67,-133.16 497.67,-133.16 491.67,-127.16 491.67,-121.16 491.67,-121.16 491.67,-87.08 491.67,-87.08 491.67,-81.08 497.67,-75.08 503.67,-75.08 503.67,-75.08 586.09,-75.08 586.09,-75.08 592.09,-75.08 598.09,-81.08 598.09,-87.08 598.09,-87.08 598.09,-121.16 598.09,-121.16 598.09,-127.16 592.09,-133.16 586.09,-133.16"/>
<text xml:space="preserve" text-anchor="middle" x="544.88" y="-119.12" font-family="Times,serif" font-size="10.00" fill="#333333">Built&#45;in rehype</text>
<text xml:space="preserve" text-anchor="middle" x="544.88" y="-107.12" font-family="Times,serif" font-size="10.00" fill="#333333">MathJax, code, tables,</text>
<text xml:space="preserve" text-anchor="middle" x="544.88" y="-95.12" font-family="Times,serif" font-size="10.00" fill="#333333">slug, autolinks, emoji,</text>
<text xml:space="preserve" text-anchor="middle" x="544.88" y="-83.12" font-family="Times,serif" font-size="10.00" fill="#333333">images, headings</text>
</g>
<!-- bridge&#45;&gt;rehype -->
<g id="edge5" class="edge">
<title>bridge&#45;&gt;rehype</title>
<path fill="none" stroke="#aaaaaa" d="M474.55,-104.12C476.38,-104.12 478.21,-104.12 480.05,-104.12"/>
<polygon fill="#aaaaaa" stroke="#aaaaaa" points="479.79,-107.62 489.79,-104.12 479.79,-100.62 479.79,-107.62"/>
</g>
<!-- post -->
<g id="node7" class="node">
<title>post</title>
<path fill="#dae8fc" stroke="#6c8ebf" d="M594.85,-46.08C594.85,-46.08 494.92,-46.08 494.92,-46.08 488.92,-46.08 482.92,-40.08 482.92,-34.08 482.92,-34.08 482.92,-12 482.92,-12 482.92,-6 488.92,0 494.92,0 494.92,0 594.85,0 594.85,0 600.85,0 606.85,-6 606.85,-12 606.85,-12 606.85,-34.08 606.85,-34.08 606.85,-40.08 600.85,-46.08 594.85,-46.08"/>
<text xml:space="preserve" text-anchor="middle" x="544.88" y="-32.04" font-family="Times,serif" font-size="10.00" fill="#333333">Post&#45;processing</text>
<text xml:space="preserve" text-anchor="middle" x="544.88" y="-20.04" font-family="Times,serif" font-size="10.00" fill="#333333">core: custom rehype</text>
<text xml:space="preserve" text-anchor="middle" x="544.88" y="-8.04" font-family="Times,serif" font-size="10.00" fill="#333333">docs: link/asset transforms</text>
</g>
<!-- rehype&#45;&gt;post -->
<g id="edge6" class="edge">
<title>rehype&#45;&gt;post</title>
<path fill="none" stroke="#aaaaaa" d="M544.88,-75.02C544.88,-69.43 544.88,-63.51 544.88,-57.75"/>
<polygon fill="#aaaaaa" stroke="#aaaaaa" points="548.38,-57.85 544.88,-47.85 541.38,-57.85 548.38,-57.85"/>
</g>
<!-- output -->
<g id="node8" class="node">
<title>output</title>
<path fill="#dae8fc" stroke="#6c8ebf" d="M683.32,-41.04C683.32,-41.04 636.44,-41.04 636.44,-41.04 630.44,-41.04 624.44,-35.04 624.44,-29.04 624.44,-29.04 624.44,-17.04 624.44,-17.04 624.44,-11.04 630.44,-5.04 636.44,-5.04 636.44,-5.04 683.32,-5.04 683.32,-5.04 689.32,-5.04 695.32,-11.04 695.32,-17.04 695.32,-17.04 695.32,-29.04 695.32,-29.04 695.32,-35.04 689.32,-41.04 683.32,-41.04"/>
<text xml:space="preserve" text-anchor="middle" x="659.88" y="-20.04" font-family="Times,serif" font-size="10.00" fill="#333333">HTML string</text>
</g>
<!-- post&#45;&gt;output -->
<g id="edge7" class="edge">
<title>post&#45;&gt;output</title>
<path fill="none" stroke="#aaaaaa" d="M607.32,-23.04C609.16,-23.04 611,-23.04 612.85,-23.04"/>
<polygon fill="#aaaaaa" stroke="#aaaaaa" points="612.64,-26.54 622.64,-23.04 612.64,-19.54 612.64,-26.54"/>
</g>
</g>
</svg>
